X: 1
T: I Am a Pilgrim
P: arranged for mandolin
%D:
R: reel
S: Fiddle Hell Online 2022-4-9 handout for Matt Flinner's mandolin chord & rhythm workshop.
Z: 2022 John Chambers <jc:trillian.mit.edu>
M: 4/4
L: 1/8
K: G
z2 [G2D2] [GD]E G2 || "D"[dA][dA][dA][dA] [d2A2][dA][dA] | [d2A2][d2_B2] [dB]AGE | "G"G2GG GGGA | G2GG d2_BA |
"C"g2GG GGGA | G2_BA BAGE | "G"[G2D2][GD][GD] [GD][GD][GD][GE] | [G2D2][GD][Gd] [G2D2]E2 |
GGGA G2GG | G2d2 d2d2 | "C"dc3 c2d_B- | B2G2 DEG2 |
"G"[dB][dB][dB][dB] [dB][dB][dB][dB] | "D"[d2B2][d2_B2] [dB]AGE | "G"G4 GBcd | g8 |]
